X:364
L:1/8
Q:1/8=180
M:2/2
K:D
 d3 c d2 B/c/d | edBd egfe | d3 c d2 B/c/d | eBdB A3 B :| dB B2 g2 fg | edBd egfe | dB B2 g2 fg | 
 e/f/g dB A3 B :| faaf g2 fg | edBd e3 e | faaf g2 fg | e/f/e dB A3 z | faaf g2 fg | edBd e3 e | 
 fa a2 bfaf | e3 f g2 fe ||"^last time" d8 |]

